Numix-Light/16/status/indicator-keyboard-Tg-2.svg

<?xml version="1.0" encoding="UTF-8" standalone="no"?>
<svg
   xmlns:dc="http://purl.org/dc/elements/1.1/"
   xmlns:cc="http://creativecommons.org/ns#"
   xmlns:rdf="http://www.w3.org/1999/02/22-rdf-syntax-ns#"
   xmlns:svg="http://www.w3.org/2000/svg"
   xmlns="http://www.w3.org/2000/svg"
   xmlns:sodipodi="http://sodipodi.sourceforge.net/DTD/sodipodi-0.dtd"
   xmlns:inkscape="http://www.inkscape.org/namespaces/inkscape"
   viewBox="0 0 16 16"
   id="svg2"
   version="1.1"
   inkscape:version="0.91 r13725"
   sodipodi:docname="indicator-keyboard-Tg-2.svg">
  <metadata
     id="metadata14">
    <rdf:RDF>
      <cc:Work
         rdf:about="">
        <dc:format>image/svg+xml</dc:format>
        <dc:type
           rdf:resource="http://purl.org/dc/dcmitype/StillImage" />
      </cc:Work>
    </rdf:RDF>
  </metadata>
  <defs
     id="defs12" />
  <sodipodi:namedview
     pagecolor="#ffffff"
     bordercolor="#666666"
     borderopacity="1"
     objecttolerance="10"
     gridtolerance="10"
     guidetolerance="10"
     inkscape:pageopacity="0"
     inkscape:pageshadow="2"
     inkscape:window-width="640"
     inkscape:window-height="480"
     id="namedview10"
     showgrid="false"
     inkscape:zoom="14.75"
     inkscape:cx="8"
     inkscape:cy="8"
     inkscape:window-x="65"
     inkscape:window-y="24"
     inkscape:window-maximized="0"
     inkscape:current-layer="svg2" />
  <path
     style="fill:#353535;fill-opacity:1"
     d="M 1.5996094 0 C 0.71320937 2.9605947e-16 0 0.71320937 0 1.5996094 L 0 14.400391 C 2.9605947e-16 15.286791 0.71320937 16 1.5996094 16 L 14.400391 16 C 15.286791 16 16 15.286791 16 14.400391 L 16 1.5996094 C 16 0.71320937 15.286791 0 14.400391 0 L 1.5996094 0 z M 1.8339844 4.859375 L 6.4414062 4.859375 L 6.4414062 5.390625 L 4.4433594 5.390625 L 4.4433594 11.095703 L 3.8320312 11.095703 L 3.8320312 5.390625 L 1.8339844 5.390625 L 1.8339844 4.859375 z M 8.9082031 6.3535156 C 9.3402031 6.3535156 9.6834063 6.3833594 9.9414062 6.4433594 C 10.205406 6.4973594 10.421844 6.5514688 10.589844 6.6054688 L 10.589844 10.853516 C 10.589844 11.549516 10.410781 12.043891 10.050781 12.337891 C 9.6907811 12.637891 9.147875 12.787109 8.421875 12.787109 C 8.121875 12.787109 7.8475625 12.764797 7.6015625 12.716797 C 7.3615625 12.674797 7.1544688 12.6225 6.9804688 12.5625 L 7.0976562 12.03125 C 7.2416563 12.09725 7.4375938 12.155125 7.6835938 12.203125 C 7.9355937 12.251125 8.1874531 12.275391 8.4394531 12.275391 C 8.9914531 12.275391 9.3907187 12.167172 9.6367188 11.951172 C 9.888719 11.741172 10.013672 11.377328 10.013672 10.861328 L 10.013672 10.556641 C 9.9776719 10.586641 9.9235627 10.622062 9.8515625 10.664062 C 9.7795625 10.700062 9.6900312 10.73925 9.5820312 10.78125 C 9.4800312 10.82325 9.3606562 10.858672 9.2226562 10.888672 C 9.0906563 10.912672 8.9394844 10.925781 8.7714844 10.925781 C 8.5014844 10.925781 8.2422344 10.882828 7.9902344 10.798828 C 7.7382344 10.714828 7.5162187 10.582344 7.3242188 10.402344 C 7.1382187 10.222344 6.9870469 9.9929377 6.8730469 9.7109375 C 6.7590469 9.4229375 6.703125 9.0740156 6.703125 8.6660156 C 6.703125 8.3360156 6.7534688 8.0300469 6.8554688 7.7480469 C 6.9574687 7.4660469 7.1011094 7.2235312 7.2871094 7.0195312 C 7.4791094 6.8095312 7.7104687 6.6472031 7.9804688 6.5332031 C 8.2564687 6.4132031 8.5662031 6.3535156 8.9082031 6.3535156 z M 8.9160156 6.8847656 C 8.6640156 6.8847656 8.4401875 6.9295312 8.2421875 7.0195312 C 8.0501875 7.1035313 7.8840937 7.2266719 7.7460938 7.3886719 C 7.6080938 7.5446719 7.5036406 7.7330781 7.4316406 7.9550781 C 7.3596406 8.1710781 7.3242187 8.4117812 7.3242188 8.6757812 C 7.3242188 8.9817813 7.3652188 9.2447969 7.4492188 9.4667969 C 7.5332188 9.6827969 7.6414375 9.8600469 7.7734375 9.9980469 C 7.9114375 10.136047 8.0681875 10.238688 8.2421875 10.304688 C 8.4161875 10.364687 8.5914844 10.394531 8.7714844 10.394531 C 9.0354844 10.394531 9.2761875 10.355344 9.4921875 10.277344 C 9.7141875 10.199344 9.8858592 10.109812 10.005859 10.007812 L 10.005859 7.0097656 C 9.9038592 6.9797656 9.771375 6.9536875 9.609375 6.9296875 C 9.447375 6.8996875 9.2160156 6.8847656 8.9160156 6.8847656 z M 12.837891 8.7539062 C 13.231791 8.7539062 13.527663 8.851875 13.726562 9.046875 C 13.925463 9.237975 14.025391 9.5044563 14.025391 9.8476562 C 14.025391 9.9997563 13.997959 10.14475 13.943359 10.28125 C 13.888759 10.41385 13.814303 10.543169 13.720703 10.667969 C 13.631003 10.792769 13.527156 10.912297 13.410156 11.029297 C 13.293156 11.146297 13.175587 11.263859 13.054688 11.380859 C 12.953288 11.478359 12.853359 11.578288 12.755859 11.679688 C 12.662259 11.777187 12.576047 11.877116 12.498047 11.978516 C 12.423947 12.076016 12.363206 12.172031 12.316406 12.269531 C 12.273506 12.363131 12.251953 12.457181 12.251953 12.550781 L 12.251953 12.5625 L 14.166016 12.5625 L 14.166016 12.896484 L 11.832031 12.896484 C 11.832031 12.888684 11.830105 12.874969 11.826172 12.855469 L 11.826172 12.755859 C 11.826172 12.572559 11.859481 12.402094 11.925781 12.246094 C 11.992081 12.086194 12.074381 11.937275 12.175781 11.796875 C 12.281081 11.656475 12.396684 11.525197 12.521484 11.404297 C 12.650184 11.283397 12.773625 11.165834 12.890625 11.052734 C 12.988125 10.959134 13.080216 10.869003 13.166016 10.783203 C 13.255716 10.693503 13.332138 10.603366 13.398438 10.509766 C 13.464737 10.416166 13.517641 10.316237 13.556641 10.210938 C 13.595641 10.105638 13.615234 9.9900344 13.615234 9.8652344 C 13.615234 9.5922344 13.540778 9.39825 13.392578 9.28125 C 13.248278 9.16035 13.06605 9.0996094 12.84375 9.0996094 C 12.71895 9.0996094 12.607266 9.1152844 12.509766 9.1464844 C 12.412266 9.1776844 12.326053 9.2149125 12.251953 9.2578125 C 12.181753 9.2968125 12.122966 9.3379594 12.072266 9.3808594 C 12.021566 9.4237594 11.984337 9.4570688 11.960938 9.4804688 L 11.761719 9.2167969 C 11.785119 9.1894969 11.826266 9.1503094 11.884766 9.0996094 C 11.947166 9.0450094 12.023581 8.9921062 12.113281 8.9414062 C 12.206881 8.8907063 12.312694 8.8476 12.433594 8.8125 C 12.554494 8.7735 12.689691 8.7539063 12.837891 8.7539062 z "
     id="path4" />
</svg>

<svg xmlns="http://www.w3.org/2000/svg" viewBox="0 0 16 16">
 <path d="m 1.6 0 c -0.886 0 -1.6 0.713 -1.6 1.6 l 0 12.801 c 0 0.886 0.713 1.6 1.6 1.6 l 12.801 0 c 0.886 0 1.6 -0.713 1.6 -1.6 l 0 -12.801 c 0 -0.886 -0.713 -1.6 -1.6 -1.6 l -12.801 0 z m 0.234 4.859 l 4.607 0 l 0 0.531 l -1.998 0 l 0 5.705 l -0.611 0 l 0 -5.705 l -1.998 0 l 0 -0.531 z m 7.07 1.494 c 0.432 0 0.775 0.03 1.033 0.09 c 0.264 0.054 0.48 0.108 0.648 0.162 l 0 4.248 c 0 0.696 -0.179 1.19 -0.539 1.484 c -0.36 0.3 -0.903 0.449 -1.629 0.449 c -0.3 0 -0.574 -0.022 -0.82 -0.07 c -0.24 -0.042 -0.447 -0.094 -0.621 -0.154 l 0.117 -0.531 c 0.144 0.066 0.34 0.124 0.586 0.172 c 0.252 0.048 0.504 0.072 0.756 0.072 c 0.552 0 0.951 -0.108 1.197 -0.324 c 0.252 -0.21 0.377 -0.574 0.377 -1.09 l 0 -0.305 c -0.036 0.03 -0.09 0.065 -0.162 0.107 c -0.072 0.036 -0.162 0.075 -0.27 0.117 c -0.102 0.042 -0.221 0.077 -0.359 0.107 c -0.132 0.024 -0.283 0.037 -0.451 0.037 c -0.27 0 -0.529 -0.043 -0.781 -0.127 c -0.252 -0.084 -0.474 -0.216 -0.666 -0.396 c -0.186 -0.18 -0.337 -0.409 -0.451 -0.691 c -0.114 -0.288 -0.17 -0.637 -0.17 -1.045 c 0 -0.33 0.05 -0.636 0.152 -0.918 c 0.102 -0.282 0.246 -0.525 0.432 -0.729 c 0.192 -0.21 0.423 -0.372 0.693 -0.486 c 0.276 -0.12 0.586 -0.18 0.928 -0.18 z m 0.008 0.531 c -0.252 0 -0.476 0.045 -0.674 0.135 c -0.192 0.084 -0.358 0.207 -0.496 0.369 c -0.138 0.156 -0.242 0.344 -0.314 0.566 c -0.072 0.216 -0.107 0.457 -0.107 0.721 c 0 0.306 0.041 0.569 0.125 0.791 c 0.084 0.216 0.192 0.393 0.324 0.531 c 0.138 0.138 0.295 0.241 0.469 0.307 c 0.174 0.06 0.349 0.09 0.529 0.09 c 0.264 0 0.505 -0.039 0.721 -0.117 c 0.222 -0.078 0.394 -0.168 0.514 -0.27 l 0 -2.998 c -0.102 -0.03 -0.234 -0.056 -0.396 -0.08 c -0.162 -0.03 -0.393 -0.045 -0.693 -0.045 z m 3.922 1.869 c 0.394 0 0.69 0.098 0.889 0.293 c 0.199 0.191 0.299 0.458 0.299 0.801 c 0 0.152 -0.027 0.297 -0.082 0.434 c -0.055 0.133 -0.129 0.262 -0.223 0.387 c -0.09 0.125 -0.194 0.244 -0.311 0.361 c -0.117 0.117 -0.235 0.235 -0.355 0.352 c -0.101 0.098 -0.201 0.197 -0.299 0.299 c -0.094 0.097 -0.18 0.197 -0.258 0.299 c -0.074 0.097 -0.135 0.194 -0.182 0.291 c -0.043 0.094 -0.064 0.188 -0.064 0.281 l 0 0.012 l 1.914 0 l 0 0.334 l -2.334 0 c 0 -0.008 -0.002 -0.022 -0.006 -0.041 l 0 -0.1 c 0 -0.183 0.033 -0.354 0.1 -0.51 c 0.066 -0.16 0.149 -0.309 0.25 -0.449 c 0.105 -0.14 0.221 -0.272 0.346 -0.393 c 0.129 -0.121 0.252 -0.238 0.369 -0.352 c 0.098 -0.094 0.19 -0.184 0.275 -0.27 c 0.09 -0.09 0.166 -0.18 0.232 -0.273 c 0.066 -0.094 0.119 -0.194 0.158 -0.299 c 0.039 -0.105 0.059 -0.221 0.059 -0.346 c 0 -0.273 -0.074 -0.467 -0.223 -0.584 c -0.144 -0.121 -0.327 -0.182 -0.549 -0.182 c -0.125 0 -0.236 0.016 -0.334 0.047 c -0.098 0.031 -0.184 0.068 -0.258 0.111 c -0.07 0.039 -0.129 0.08 -0.18 0.123 c -0.051 0.043 -0.088 0.076 -0.111 0.1 l -0.199 -0.264 c 0.023 -0.027 0.065 -0.066 0.123 -0.117 c 0.062 -0.055 0.139 -0.108 0.229 -0.158 c 0.094 -0.051 0.199 -0.094 0.32 -0.129 c 0.121 -0.039 0.256 -0.059 0.404 -0.059 z" style="fill:#353535;fill-opacity:1"/>
</svg>
